X:1
T:I’ve Passed the Cross
T:I’ve Passed the Cross
T:James McGranahan (1840-1907)
T:Philip Paul Bliss (1838-1876)
T:Public Domain Courtesy of the Cyber Hymnal™
C:James McGranahan (1840-1907)
Z:Public Domain
Z:Courtesy of the Cyber Hymnal™
%%score ( 1 2 ) ( 3 4 )
L:1/8
Q:1/4=113
M:4/4
K:F
V:1 treble 
V:2 treble 
V:3 bass 
V:4 bass 
V:1
 C2 | [CF]3 [CE] [CF]2 [EG]2 | [FA]3 [F^G] [FA]2 F2 | [EG]3 [^D^F] [EG]2 [=FA]2 | [EB]6 C2 | %5
w: 1.~Look|un- to Me and|be ye saved, I|heard the Just One|say; And|
w: 2.~By|His a- tone- ment|re- con- ciled, My|Fa- ther’s face I|see; The|
w: 3.~Oh,|glo- rious height of|van- tage ground! Oh,|blest vic- tor- ious|hour! In|
 [CF]3 [CE] [CF]2 [EG]2 | [FA]3 [F^G] [FA]2 [FA]2 | [EG]3 [EG] [FA]2 [F=B]2 | [Ec]6 || %9
w: as by faith on|Him I gazed, My|bur- den rolled a-|way.|
w: emp- ty tomb now|in- ter- venes Be-|tween the world and|me.|
w: Him to trust and|ful- ly know His|res- ur- rec- tion|power.|
"^Refrain" [Gc]2 | [Fc]3 [CA] [Fc]2 [Fc]2 | [Fd]3 [DB] [Fd]2 [Fd]2 | [Fc]3 [Fd] [Fc] [FA]3 | %13
w: ||||
w: I’ve|passed the cross at|Cal- va- ry, I’m|on the Heav- en|
w: ||||
 [EG]6 [Gc]2 | [Fc]3 [Fd] [Fc]2 [FA]2 | [FB]2 [Fc]2 !fermata![Fd]2 [Fd]2 | [Fc]3 [Fd] [FA]2 [EG]2 | %17
w: ||||
w: side; The|world is cru- ci-|fied to me, Since|Christ my ran- som|
w: ||||
 [FA]6 [Fc]2 | [Fc]3 [Fd] [Fc]2 [FA]2 | [FB]2 [Fc]2 !fermata![Fd]2 [Fd]2 | [Fc]3 [Fd] [CA]2 [CG]2 | %21
w: ||||
w: died; The|world is cru- ci-|fied to me, Since|Christ my ran- som|
w: ||||
 [CF]6 |] %22
w: |
w: died.|
w: |
V:2
 C2 | x8 | x6 F2 | x8 | x6 C2 | x8 | x8 | x8 | x6 || x2 | x8 | x8 | x8 | x8 | x8 | x8 | x8 | x8 | %18
 x8 | x8 | x8 | x6 |] %22
V:3
 [C,C]2 | [F,A,]3 [F,^G,] [F,A,]2 [C,C]2 | [F,C]3 [F,=B,] [F,C]2 [F,A,]2 | %3
 [C,C]3 [C,C] [C,C]2 [F,C]2 | (C2 B,2 G,2) C,2 | [F,A,]3 [F,^G,] [F,A,]2 [C,C]2 | %6
 [F,C]3 [F,=B,] [F,C]2 [F,C]2 | [G,C]3 [G,C] [G,C]2 [G,,G,]2 | (G,2 A,2 B,2) || [C,B,]2 | %10
 [F,A,]3 F, [F,A,]2 [F,A,]2 | [B,,B,]3 [B,,F,] [B,,B,]2 [B,,B,]2 | [F,A,]3 [F,B,] [F,A,] [F,C]3 | %13
 [C,C]6 [C,B,]2 | [F,A,]3 [F,B,] [F,A,]2 [_E,C]2 | [D,B,]2 [C,A,]2 !fermata![B,,B,]2 [B,,B,]2 | %16
 [C,A,]3 [C,B,] [C,C]2 [C,C]2 | [F,A,]6 [F,A,]2 | [F,A,]3 [F,B,] [F,A,]2 [_E,C]2 | %19
 [D,B,]2 [C,A,]2 !fermata![B,,B,]2 [B,,B,]2 | [A,,F,]3 [B,,F,] [C,F,]2 [C,B,]2 | [F,,F,A,]6 |] %22
V:4
 x2 | x8 | x8 | x8 | C,6 C,2 | x8 | x8 | x8 | [C,G,]6 || x2 | x3 F, x4 | x8 | x8 | x8 | x8 | x8 | %16
 x8 | x8 | x8 | x8 | x8 | x6 |] %22

